Hatter-kde-dark/actions/16/node-transform.svg

<?xml version="1.0" encoding="UTF-8"?>
<svg viewBox="0 0 16 16" xmlns="http://www.w3.org/2000/svg">
 <defs id="defs3051">
  <style id="current-color-scheme" type="text/css">.ColorScheme-Text {
        color:#dedede;
      }
      .ColorScheme-Highlight {
        color:#3daee9;
      }</style>
 </defs>
 <path class="ColorScheme-Text" d="m2 2v3h3v-3h-3zm9 0v3h3v-3h-3zm-8 1h1v1h-1v-1zm9 0h1v1h-1v-1zm-6 1v1h1v-1h-1zm3 0v1h1v-1h-1zm-5 2v1h1v-1h-1zm7 0v1h1v-1h-1zm-7 3v1h1v-1h-1zm-2 2v3h3v-3h-3zm4 0v1h1v-1h-1zm-3 1h1v1h-1v-1z" fill="currentColor"/>
 <path class="ColorScheme-Highlight" d="m8 8v2h1v-1h1v-1h-2zm4 0v1h1v1h1v-2h-2zm-4 4v2h2v-1h-1v-1h-1zm5 0v1h-1v1h2v-2h-1z" fill="currentColor"/>
</svg>

<svg xmlns="http://www.w3.org/2000/svg" viewBox="0 0 16 16">
  <defs id="defs3051">
    <style type="text/css" id="current-color-scheme">
      .ColorScheme-Text {
        color:#dedede;
      }
      .ColorScheme-Highlight {
        color:#3daee9;
      }
      </style>
  </defs>
  <path 
        style="fill:currentColor;fill-opacity:1;stroke:none"
        d="M 2,2 2,5 5,5 5,2 2,2 Z m 9,0 0,3 3,0 0,-3 -3,0 z M 3,3 4,3 4,4 3,4 3,3 Z m 9,0 1,0 0,1 -1,0 0,-1 z M 6,4 6,5 7,5 7,4 6,4 Z M 9,4 9,5 10,5 10,4 9,4 Z M 4,6 4,7 5,7 5,6 4,6 Z m 7,0 0,1 1,0 0,-1 -1,0 z M 4,9 4,10 5,10 5,9 4,9 Z m -2,2 0,3 3,0 0,-3 -3,0 z m 4,0 0,1 1,0 0,-1 -1,0 z m -3,1 1,0 0,1 -1,0 0,-1 z"
        class="ColorScheme-Text"
        />
  <path
        style="fill:currentColor;fill-opacity:1;stroke:none"
        d="M 8 8 L 8 10 L 9 10 L 9 9 L 10 9 L 10 8 L 8 8 z M 12 8 L 12 9 L 13 9 L 13 10 L 14 10 L 14 8 L 12 8 z M 8 12 L 8 14 L 10 14 L 10 13 L 9 13 L 9 12 L 8 12 z M 13 12 L 13 13 L 12 13 L 12 14 L 14 14 L 14 12 L 13 12 z "
        class="ColorScheme-Highlight"
      />
</svg>
